dist/icons/absolute-items/4.svg

<svg width="60" height="60" viewBox="0 0 60 60" fill="none" xmlns="http://www.w3.org/2000/svg">
<path d="M45.2925 53.8208H9.67925V18.4434L21.9434 6.25786H44.6635V19.7799C44.6635 20.0943 44.8994 20.4088 45.2925 20.4088C45.6855 20.4088 45.9214 20.173 45.9214 19.7799V5.62893C45.9214 5.31447 45.6855 5 45.2925 5H21.7075C21.5503 5 21.3931 5.07862 21.3145 5.15723L8.65723 17.8145C8.57862 17.8931 8.5 18.0503 8.5 18.2075V54.3711C8.5 54.6855 8.73585 55 9.12893 55H45.2925C45.6069 55 45.9214 54.7642 45.9214 54.3711C45.9214 53.978 45.6069 53.8208 45.2925 53.8208Z" fill="black" fill-opacity="0.8"/>
<path d="M22.2577 18.2074V8.77346C22.2577 8.459 22.0219 8.14453 21.6288 8.14453C21.2357 8.14453 20.9999 8.38038 20.9999 8.77346V17.6571H12.2735C11.959 17.6571 11.6445 17.893 11.6445 18.286C11.6445 18.6791 11.8804 18.915 12.2735 18.915H21.7074C22.0219 18.8364 22.2577 18.5219 22.2577 18.2074Z" fill="black" fill-opacity="0.8"/>
<path d="M39.7901 23.1604H13.8467C13.5322 23.1604 13.2178 23.3962 13.2178 23.7893C13.2178 24.1824 13.4536 24.4183 13.8467 24.4183H39.7901C40.1046 24.4183 40.419 24.1824 40.419 23.7893C40.419 23.3962 40.1046 23.1604 39.7901 23.1604Z" fill="black" fill-opacity="0.8"/>
<path d="M40.3399 28.4278C40.3399 28.1133 40.1041 27.7988 39.711 27.7988H13.7676C13.4531 27.7988 13.1387 28.0347 13.1387 28.4278C13.1387 28.8208 13.3745 29.0567 13.7676 29.0567H39.711C40.1041 29.0567 40.3399 28.7422 40.3399 28.4278Z" fill="black" fill-opacity="0.8"/>
<path d="M13.8467 32.5942C13.5322 32.5942 13.2178 32.8301 13.2178 33.2232C13.2178 33.6163 13.4536 33.8521 13.8467 33.8521H35.0731C35.3876 33.8521 35.702 33.6163 35.702 33.2232C35.702 32.8301 35.4662 32.5942 35.0731 32.5942H13.8467Z" fill="black" fill-opacity="0.8"/>
<path d="M47.4936 30.2358C42.9338 30.2358 38.9244 33.066 37.3521 37.3113H15.4967C15.3395 37.3113 15.1823 37.3899 15.1036 37.4685L11.959 40.6132C11.8804 40.6918 11.8018 40.849 11.8018 41.0063C11.8018 41.1635 11.8018 41.2421 11.8804 41.3994L15.025 44.544C15.1036 44.6226 15.2609 44.7013 15.4181 44.7013H18.6414C18.7986 44.7013 18.9558 44.6226 19.0345 44.544L20.8426 42.7358L22.808 44.544C22.8867 44.6226 23.0439 44.7013 23.2011 44.7013H23.9873C24.1445 44.7013 24.3018 44.6226 24.3804 44.544L26.1885 42.7358L27.9967 44.544C28.0753 44.6226 28.2326 44.7013 28.3898 44.7013H29.176C29.3332 44.7013 29.4904 44.6226 29.569 44.544L31.3772 42.7358L33.1854 44.544C33.264 44.6226 33.4213 44.7013 33.5785 44.7013H37.1162C38.6885 48.9465 42.698 51.7767 47.2577 51.7767C53.2326 51.7767 58.1068 46.9025 58.1068 40.9277C58.1068 34.9528 53.4684 30.2358 47.4936 30.2358ZM47.4936 50.6761C43.2483 50.6761 39.6319 48.0031 38.2955 43.9937C38.2168 43.7579 37.981 43.6006 37.7451 43.6006H34.0502L32.0062 41.5566C31.9275 41.478 31.7703 41.3994 31.6131 41.3994C31.4558 41.3994 31.2986 41.478 31.22 41.5566L29.0974 43.522H28.7829L26.7389 41.478C26.503 41.2421 26.1099 41.2421 25.8741 41.478L23.8301 43.522H23.5156L21.4716 41.478C21.2357 41.2421 20.8426 41.2421 20.6068 41.478L18.5628 43.522H15.7326L13.1382 40.9277L15.7326 38.3333H37.8238C38.0596 38.3333 38.2955 38.1761 38.3741 37.9402C39.7106 34.0094 43.3269 31.3365 47.4936 31.3365C52.8395 31.3365 57.1634 35.6604 57.1634 41.0063C57.1634 46.3522 52.8395 50.6761 47.4936 50.6761Z" fill="black" fill-opacity="0.8"/>
<path d="M51.4242 36.9182C49.1444 36.9182 47.3362 38.7264 47.3362 41.0063C47.3362 43.2861 49.1444 45.0943 51.4242 45.0943C53.7041 45.0943 55.5123 43.2861 55.5123 41.0063C55.5123 38.7264 53.7041 36.9182 51.4242 36.9182ZM51.4242 43.9151C49.8519 43.9151 48.5154 42.5786 48.5154 41.0063C48.5154 39.4339 49.8519 38.0975 51.4242 38.0975C52.9966 38.0975 54.333 39.4339 54.333 41.0063C54.333 42.5786 53.0752 43.9151 51.4242 43.9151Z" fill="black" fill-opacity="0.8"/>
<path d="M40.3398 8.77346C40.3398 8.459 40.1039 8.14453 39.7108 8.14453H30.2769C29.9624 8.14453 29.6479 8.38038 29.6479 8.77346V19.7798C29.6479 20.0942 29.8838 20.4087 30.2769 20.4087H39.7108C40.0253 20.4087 40.3398 20.1728 40.3398 19.7798V8.77346ZM39.1605 19.2294H30.9058V9.40239H39.1605V19.2294Z" fill="black" fill-opacity="0.8"/>
</svg>

<svg width="60" height="60" fill="none" xmlns="http://www.w3.org/2000/svg"><path d="M45.292 53.82H9.68V18.444L21.943 6.258h22.72V19.78a.62.62 0 00.63.629c.392 0 .628-.236.628-.63V5.63a.62.62 0 00-.629-.63H21.707a.6.6 0 00-.393.157L8.657 17.814a.6.6 0 00-.157.393v36.164a.62.62 0 00.629.629h36.163a.62.62 0 00.63-.629c0-.393-.315-.55-.63-.55z" fill="#000" fill-opacity=".8"/><path d="M22.258 18.207V8.773a.62.62 0 00-.63-.628c-.392 0-.628.235-.628.628v8.884h-8.726a.62.62 0 00-.63.629c0 .393.236.629.63.629h9.433a.755.755 0 00.55-.708zM39.79 23.16H13.847a.62.62 0 00-.63.63c0 .392.237.628.63.628H39.79a.62.62 0 00.629-.629.62.62 0 00-.629-.629zm.55 5.268a.62.62 0 00-.629-.63H13.768a.62.62 0 00-.63.63c0 .393.236.629.63.629H39.71a.62.62 0 00.629-.63zm-26.493 4.166a.62.62 0 00-.63.63c0 .392.237.628.63.628h21.226a.62.62 0 00.629-.629c0-.393-.236-.629-.629-.629H13.847z" fill="#000" fill-opacity=".8"/><path d="M47.494 30.236c-4.56 0-8.57 2.83-10.142 7.075H15.497a.6.6 0 00-.393.157l-3.145 3.145a.6.6 0 00-.157.393c0 .157 0 .236.078.393l3.145 3.145a.6.6 0 00.393.157h3.223a.6.6 0 00.394-.157l1.808-1.808 1.965 1.808a.6.6 0 00.393.157h.786a.6.6 0 00.393-.157l1.809-1.808 1.808 1.808a.6.6 0 00.393.157h.786a.6.6 0 00.393-.157l1.808-1.808 1.808 1.808a.6.6 0 00.393.157h3.538c1.572 4.245 5.582 7.076 10.142 7.076 5.975 0 10.849-4.874 10.849-10.85 0-5.974-4.639-10.691-10.613-10.691zm0 20.44c-4.246 0-7.862-2.673-9.199-6.682a.591.591 0 00-.55-.393H34.05l-2.044-2.044a.6.6 0 00-.393-.158.6.6 0 00-.393.158l-2.123 1.965h-.314l-2.044-2.044a.617.617 0 00-.865 0l-2.044 2.044h-.314l-2.044-2.044a.617.617 0 00-.865 0l-2.044 2.044h-2.83l-2.595-2.594 2.595-2.595h22.09a.591.591 0 00.551-.393c1.337-3.93 4.953-6.603 9.12-6.603a9.663 9.663 0 019.67 9.67 9.663 9.663 0 01-9.67 9.67z" fill="#000" fill-opacity=".8"/><path d="M51.424 36.918a4.06 4.06 0 00-4.088 4.088 4.06 4.06 0 004.088 4.088 4.06 4.06 0 004.088-4.088 4.06 4.06 0 00-4.088-4.088zm0 6.997c-1.572 0-2.909-1.336-2.909-2.909 0-1.572 1.337-2.909 2.91-2.909 1.572 0 2.908 1.337 2.908 2.91a2.902 2.902 0 01-2.909 2.908zM40.34 8.773a.62.62 0 00-.63-.628h-9.433a.62.62 0 00-.63.628V19.78a.62.62 0 00.63.629h9.434a.62.62 0 00.629-.63V8.774zM39.16 19.23h-8.254V9.402h8.255v9.827z" fill="#000" fill-opacity=".8"/></svg>
